src/assets/svg/icons/fa/nuevos/classic/thin/seal classic thin.svg

<svg xmlns="http://www.w3.org/2000/svg" viewBox="0 0 512 512"><path d="M187.8 75.31C184.8 78.31 180.7 80 176.5 80H112C94.33 80 80 94.33 80 112V176.5C80 180.7 78.31 184.8 75.31 187.8L29.73 233.4C17.23 245.9 17.23 266.1 29.73 278.6L75.31 324.2C78.31 327.2 80 331.3 80 335.5V400C80 417.7 94.33 432 112 432H176.5C180.7 432 184.8 433.7 187.8 436.7L233.4 482.3C245.9 494.8 266.1 494.8 278.6 482.3L324.2 436.7C327.2 433.7 331.3 432 335.5 432H400C417.7 432 432 417.7 432 400V335.5C432 331.3 433.7 327.2 436.7 324.2L482.3 278.6C494.8 266.1 494.8 245.9 482.3 233.4L436.7 187.8C433.7 184.8 432 180.7 432 176.5V112C432 94.33 417.7 80 400 80H335.5C331.3 80 327.2 78.31 324.2 75.31L278.6 29.73L289.9 18.41L335.5 64H400C426.5 64 448 85.49 448 112V176.5L493.6 222.1C512.3 240.8 512.3 271.2 493.6 289.9L448 335.5V400C448 426.5 426.5 448 400 448H335.5L289.9 493.6C271.2 512.3 240.8 512.3 222.1 493.6L176.5 448H112C85.49 448 64 426.5 64 400V335.5L18.41 289.9C-.3328 271.2-.3328 240.8 18.41 222.1L64 176.5V112C64 85.49 85.49 64 112 64H176.5L222.1 18.41C240.8-.3309 271.2-.3309 289.9 18.41L278.6 29.73C266.1 17.23 245.9 17.23 233.4 29.73L187.8 75.31z"/></svg>

<svg xmlns="http://www.w3.org/2000/svg" viewBox="0 0 512 512"><!--! Font Awesome Pro 6.4.0 by @fontawesome - https://fontawesome.com License - https://fontawesome.com/license (Commercial License) Copyright 2023 Fonticons, Inc. --><path d="M187.8 75.3c-3 3-7.1 4.7-11.3 4.7H112c-17.7 0-32 14.3-32 32v64.5c0 4.2-1.7 8.3-4.7 11.3L29.7 233.4c-12.5 12.5-12.5 32.8 0 45.3l45.6 45.6c3 3 4.7 7.1 4.7 11.3V400c0 17.7 14.3 32 32 32h64.5c4.2 0 8.3 1.7 11.3 4.7l45.6 45.6c12.5 12.5 32.8 12.5 45.3 0l45.6-45.6c3-3 7.1-4.7 11.3-4.7H400c17.7 0 32-14.3 32-32V335.5c0-4.2 1.7-8.3 4.7-11.3l45.6-45.6c12.5-12.5 12.5-32.8 0-45.3l-45.6-45.6c-3-3-4.7-7.1-4.7-11.3V112c0-17.7-14.3-32-32-32H335.5c-4.2 0-8.3-1.7-11.3-4.7L278.6 29.7l11.3-11.3L335.5 64H400c26.5 0 48 21.5 48 48v64.5l45.6 45.6c18.7 18.7 18.7 49.1 0 67.9L448 335.5V400c0 26.5-21.5 48-48 48H335.5l-45.6 45.6c-18.7 18.7-49.1 18.7-67.9 0L176.5 448H112c-26.5 0-48-21.5-48-48V335.5L18.4 289.9c-18.7-18.7-18.7-49.1 0-67.9L64 176.5V112c0-26.5 21.5-48 48-48h64.5l45.6-45.6c18.7-18.7 49.1-18.7 67.9 0L278.6 29.7c-12.5-12.5-32.8-12.5-45.3 0L187.8 75.3z"/></svg>
